X:449
T: La' beten, o Christengemeinde (5-45), S. 76
N: P0719
O: Lothringen
S: MERKELBACH-PINCK, Angelika: Verklingende Weisen, Bd 5, Kassel 1962]
R: geistliches, religises Lied]
M: 3/4
L: 1/8
K: F
C2 | F3GA2 | A3GF2 | G6 | G4
C2 | G3AB2 | B3AG2 | A6 | A4z2 |
c4B2 | A3BA2 | G2F2G2 | A6 |
c4B2 | A3BA2 | G2F2G2 | A6 | A6 |
G2F2G2 | F4

@@@ Tune index: 7999
